X:253
T:Reel 253
M:4/4
K:Gmaj
L:1/8
dc|B>G (3GFG B>G (3GFG |AGGd efge|c>A (3AAA fAFA|A>B (3AAA e2dc|B>G (3GGG DG (3Bcd |B>G (3Bfg edcB|c>d (3BAG gd (3def |gbaf g2|d2|AGFG ABcA|B>G (3GFG Bdgd|c>A (3AAA A2dc|AGFE DEFD|d>G (3GGG gGdG|B>G (3GFG Bdgd|efaf gedc|BGAF G2|Bd|G2BG GBdG|GABG AGdc|BAG (3GGG d2BG|AD (3DED ADdA|GFGA BGBd|cABG AGEA|DFAF GABc|
